X: 1
T: Nobody's Jig
O: 1679
B: Playford, Dancing Master,6th Ed.,1679 (Chris Partington's transcription)
B: Barnes v.1 p.88
Z: 2014 John Chambers <jc:trillian.mit.edu>
M: C|
L: 1/4
K: Ddor
d |\
"Am"cA AB/c/ | "Dm"dD Dd | "Am"cA  AB/c/ | "Dm"d3d |\
"Am"cA AB/c/ | "Dm"dA AG | "Dm"F2 "A7"E2 | "Dm"D3 :|
|: d |\
"Am"ce ed/c/ | "Dm"df fe/d/ | "Am"ce  ed/c/ | "Dm"df fe/d/ |\
"Am"cA AB/c/ | "Dm"dA AG    | "Dm"F2 "A7"E2 | "Dm"D3 :|

